!!!!SEGMENT: pl-wnifc--6439-n--006_anonim--mazur-no-6.krn
!!!cenid: 18xx:3949
!!!COM: Anonim
!!!COM-rismID: pe30004985
!!!CDT:
!!!CNT:
!!!OTL: [Mazur] No. 6
!!!PDT: 1827
!!!AGN:
!!!YEC: Copyright 2022 Narodowy Instytut Fryderyka Chopina (https://polishscores.org)
!!!YEM: License CC-BY-4.0 (https://creativecommons.org/licenses/by/4.0)
!!!SMS-siglum: PL-Wnifc
!!!SMS-shelfmark: 6439/n
!!!SMS-shelfwork: 006 W
!!!SMS-variant:
!!!SMS-altvar:
!!!NIFC-rismSourceID: 1001011210
!!!NIFC-rismChildID: 1001011236
!!!NIFC-islandoraID: nifc:212734
!!!URL-pdf-islandora: https://repozytorium.nifc.pl/islandora/object/nifc:212734/datastream/PDF/view
!!!URL-scan: https://polish.musicsources.pl/pl/lokalizacje/galeria/druki-muzyczne/16857 @EN{Scan on Polish Music Sources Website} @PL{Skany w portalu Dziedzictwo Muzyki Polskiej w otwartym dostępie}
!!!IIIF:
!!!ONB-nifc: str. 5 (skan 0003)
!!!AIN: 2 piano
!!!key: B-
**kern	**kern
*part2	*part1
*staff2	*staff1
*I"Pianoforte	*I"Pianoforte
*I'Pf	*I'Pf
*Ipiano	*Ipiano
*ICklav	*ICklav
*clefF4	*clefG2
*k[b-e-]	*k[b-e-]
*B-:	*B-:
*M3/8	*M3/8
=1	=1
*^	*
!	!	!LO:TX:a:Bi:t=No 6.
8rc	4BB-\	16d/LL
.	.	16f/
8D/L 8F	.	16b-/
.	.	16dd/
8D/J 8F	8rEE	16ff/
.	.	16gg/JJ
=2	=2	=2
!	!	!LO:TUP:a
8rc	4FF\	(24ff\LL
.	.	24ee-\
.	.	24dd\JJ)
8AA/L 8C 8F	.	8ee-\L
8AA/J 8C 8F	8rEE	16cc\L
.	.	16a\JJ
=3	=3	=3
8rc	4FF\	16f\LL
.	.	16a\
8AA/L 8C 8F	.	16cc\
.	.	16ee-\
8AA/J 8C 8F	8rEE	16gg\
.	.	16ff\JJ
=4	=4	=4
.	.	8qee-/
8rc	4BB-\	16dd\LL
.	.	16cc\JJ
8D/L 8F	.	8dd\L
8D/J 8F	8rEE	16b-\L
.	.	16g\JJ
=5	=5	=5
8rc	4BB-\	16f\LL
.	.	16b-\
8D/L 8F	.	16dd\
.	.	16ff\
8D/J 8F	8rEE	16bb-\
.	.	16ddd\JJ
=6	=6	=6
8rc	4E-\	16ccc\LL
.	.	16bb-\
8G/L 8c	.	16aa\
.	.	16ccc\
8G/J 8c	8rEE	16bb-\
.	.	16gg\JJ
=7	=7	=7
8rc	4F\	16ff\LL
.	.	16een\
8A/L 8c 8e-	.	16gg\
.	.	16ff\JJ
8A/J 8c 8e-	8rEE	16a/LL
.	.	16cc/JJ
*v	*v	*
=8	=8
8B-\ 8d	16ee-\LL
.	16dd\JJ
4BB-\ 4B-	4b-\
=9:|!|:	=9:|!|:
*^	*
8rc	4F\	16.a\LL 16.cc
.	.	32ccc\JJk
8A/L 8c	.	8aa\L
8A/J 8c	8rEE	(32bb-\LL
!LO:LB:g=original	!LO:LB:g=original	!
.	.	32aa\
.	.	32gg\
.	.	32ff\JJJ)
!	!	!LO:LB:g=original
=10	=10	=10
8rc	4C\	16een\LL
.	.	16cc\
8E-/L 8G 8c	.	16bn\
.	.	16cc\
8E-/J 8G 8c	8rEE	16ee\
.	.	16gg\JJ
=11	=11	=11
!	!	!LO:TUP:a
8rc	4C\	(24bb-\LL
.	.	24aa\
.	.	24gg\JJ)
8E-/L 8G 8c	.	8ff'\L
!	!	!LO:TUP:a
8E-/J 8G 8c	8rEE	(24ff\L
.	.	24een\
.	.	24dd\JJ)
=12	=12	=12
8rc	4F\	8ccT\L
8A/L 8c	.	16ff\L
.	.	16aa\
8A/J 8c	8rEE	16ccc\
.	.	16fff\JJ
=13	=13	=13
8rc	4F\	16.a\LL 16.cc
.	.	32ccc\JJk
8A/L 8c	.	8aa'\L
8A/J 8c	8rEE	(32bb-\LL
.	.	32aa\
.	.	32gg\
.	.	32ff\JJJ)
=14	=14	=14
8rc	4C\	16een\LL
.	.	16cc\
8E-/L 8G 8c	.	16ee\
.	.	16gg\
8E-/J 8G 8c	8rEE	16bb-\
.	.	16ddd\JJ
*v	*v	*
=15	=15
8F\L 8A 8c	16ccc\LL
.	16aa\
8BB-\ 8D 8G	16ccc\
.	16bb-\
8C\J 8G 8B-	16cc\
.	16een\JJ
=16	=16
8F\ 8A	16gg\LL
.	16ff\JJ
4FF/ 4F	4ff\
=17:|!|:	=17:|!|:
!	!LO:TUP:a
8BB-\L 8B-	(24ee-X\LL
.	24dd\
.	24cc\JJ)
8F\ 8B- 8d	8dd\L
8F\J 8B- 8d	16een\L
.	16ff\JJ
=18	=18
8BB-\L 8B-	(32cc\LLL
.	32b-\
.	32a\
.	32b-\JJJ)
8F\ 8B- 8d	8dd\L
8F\J 8B- 8d	16b-\L
.	16g\JJ
!LO:LB:g=original	!LO:LB:g=original
=19	=19
8FF/ 8F	16f/LL
.	16a/
8F\L 8A 8c 8e-	16cc/
.	16ee-/JJ
8F\J 8A 8c 8e-	16gg\LL
.	16ff\JJ
=20	=20
8BB-\ 8B-	8dd\
8D^\L 8F 8d	4b-\ 4dd 4bb-
8D\J 8F 8d	.
=21	=21
8BB-\ 8B-	16dd\LL
.	(16ddd\
8F\L 8B- 8d	16ccc\
.	16bb-\
8F\J 8B- 8d	16aa\
.	16gg\JJ)
=22	=22
8EE-/ 8E-	(32ff#X\LLL
.	32gg\
.	32aa\
.	32gg\JJJ)
8E-\L 8G 8c	16ffn\LL
.	16ee-\
8E-\J 8G 8c	16dd\
.	16cc\JJ
=23	=23
8FF/ 8F	16b-/LL
.	16a/JJ
8F\L 8c 8e-	16gg\LL
.	16ff\
8F\J 8c 8e-	16a\
.	16cc\JJ
=24	=24
8B-\ 8d	16ee-\LL
.	16dd\JJ
4BB-\ 4B-	4b-\
=25:|!|:	=25:|!|:
*^	*
8rc	4D\	16.dd\LL
.	.	32cc#X\K
8A/L 8c	.	16.dd\
.	.	32een\K
8A/J 8c	8rEE	16.ff#X\
.	.	32dd\JJk
=26	=26	=26
8rc	4G\	(8gg\L
8B-^/L 8d	.	8.bb-\
8B-/J 8d	8rEE	.
.	.	32aa\LL
.	.	32gg\JJJ)
=27	=27	=27
8rc	4D\	8ff#X\L
8A/L 8c	.	8.ddd\
8A/J 8c	8rEE	.
.	.	16ccc\Jk
=28	=28	=28
8rc	4G\	(16ccc\LL
.	.	16bb-\
8B-/L 8d	.	16aa\
.	.	16bb-\J)
8B-/J 8d	8rEE	8gg\J
!LO:LB:g=original	!LO:LB:g=original	!LO:LB:g=original
=29	=29	=29
8rc	4D\	16.aa\LL
.	.	32gg\K
.	.	8qgg/
8A/L 8c	.	16ff#X\
.	.	16ee-\
.	.	8qee-/
8A/J 8c	8rEE	16dd\
.	.	16cc\JJ
=30	=30	=30
.	.	8qcc/
8rc	4G\	16b-\LL
.	.	16a\JJ
8B-/L 8d	.	8.ee-\L
8B-/J 8d	8rEE	.
.	.	16dd\Jk
=31	=31	=31
8rc	4D\	16cc\LL
.	.	16b-\
8A/L 8c	.	16a\
.	.	16ee-\JJ
8A/J 8c	8rEE	16dd/LL
.	.	16f#X/JJ
*v	*v	*
=32	=32
8G\ 8B-	16a/LL
.	16g/JJ
4GG/ 4G	4g/
=:|!	=:|!
*-	*-
!!!system-decoration: [(s1,s2)]
!!!ENC: Solarz Mateusz
!!!END: 2022-07-28
!!!ENC: Julita Ruszuk
!!!END: 2022-08-25
